design/icon.svg

<?xml version="1.0" encoding="UTF-8"?>
<svg width="2208px" height="2208px" viewBox="0 0 2208 2208" version="1.1" xmlns="http://www.w3.org/2000/svg" xmlns:xlink="http://www.w3.org/1999/xlink">
    <!-- Generator: Sketch 49.3 (51167) - http://www.bohemiancoding.com/sketch -->
    <title>icon</title>
    <desc>Created with Sketch.</desc>
    <defs></defs>
    <g id="Page-1" stroke="none" stroke-width="1" fill="none" fill-rule="evenodd">
        <g id="icon" fill-rule="nonzero">
            <rect id="Rectangle-path" fill="#48466D" x="0" y="0" width="2208" height="2208"></rect>
            <path d="M1388.18373,335.994 L1366.9707,337.028 C1113.02228,350.017 806.162783,674.153 810.48379,924.867 C812.283793,1031.021 851.119856,1130.638 917.478964,1211.921 L575.942408,1553.446 L406.817133,1384.321 C388.067103,1365.63 357.841053,1365.63 339.108023,1384.321 C320.413992,1402.995 320.413992,1433.279 339.108023,1451.956 L560.567383,1673.446 L575.927408,1688.865 L745.067684,1857.976 C763.817714,1876.682 794.042763,1876.682 812.718794,1857.976 C831.439824,1839.288 831.439824,1809.016 812.718794,1790.312 L643.576518,1621.186 L985.116074,1279.681 C1066.50621,1345.9 1165.96937,1384.813 1272.29054,1386.661 C1523.10695,1390.964 1847.16948,1084.108 1859.9805,830.126 L1861.0875,808.915 L1388.18373,335.994 Z M1273.88154,1290.973 C1079.15323,1287.613 909.409951,1118.202 906.154946,923.293 C902.82494,729.399 1150.89834,461.409 1351.35967,434.5 L1762.49834,845.638 C1735.6773,1046.159 1467.79186,1294.351 1273.88154,1290.973 Z M1370.4407,864.598 C1531.90196,968.322 1711.03226,861.777 1711.03226,861.777 C1670.75819,1037.952 1437.07081,1245.944 1274.65155,1243.123 C1113.65328,1240.41 956.754028,1083.524 954.008024,922.527 C953.856023,912.718 956.722028,902.068 958.02803,891.882 C1011.14312,886.932 1058.51319,875.533 1083.38523,861.327 C1143.17333,827.218 1208.96244,760.872 1370.4407,864.598 Z" id="Shape" fill="#FFFFFF"></path>
        </g>
    </g>
</svg>

<?xml version="1.0" encoding="utf-8"?>
<!-- Generator: Adobe Illustrator 16.0.0, SVG Export Plug-In . SVG Version: 6.00 Build 0)  -->
<!DOCTYPE svg PUBLIC "-//W3C//DTD SVG 1.1//EN" "http://www.w3.org/Graphics/SVG/1.1/DTD/svg11.dtd">
<svg version="1.1" id="Layer_1" xmlns="http://www.w3.org/2000/svg" xmlns:xlink="http://www.w3.org/1999/xlink" x="0px" y="0px"
	 width="2208px" height="2208px" viewBox="0 0 2208 2208" enable-background="new 0 0 2208 2208" xml:space="preserve">
<rect fill="#E23E57" width="2208" height="2208"/>
<path fill="#FFFFFF" d="M1388.182,335.994l-21.213,1.034c-253.948,12.989-560.807,337.125-556.486,587.839
	c1.8,106.154,40.636,205.771,106.995,287.054l-341.536,341.525l-169.125-169.125c-18.75-18.691-48.976-18.691-67.709,0
	c-18.694,18.674-18.694,48.958,0,67.635l221.459,221.49l15.36,15.419l0,0l169.14,169.111c18.75,18.706,48.975,18.706,67.651,0
	c18.721-18.688,18.721-48.96,0-67.664l-169.142-169.126l341.539-341.505c81.39,66.219,180.853,105.132,287.174,106.98
	c250.816,4.303,574.878-302.553,587.689-556.535l1.107-21.211L1388.182,335.994z M1273.88,1290.973
	c-194.728-3.36-364.471-172.771-367.726-367.68c-3.33-193.894,244.743-461.884,445.204-488.793l411.138,411.138
	C1735.675,1046.159,1467.79,1294.351,1273.88,1290.973z M1370.439,864.598c161.461,103.724,340.591-2.821,340.591-2.821
	c-40.274,176.175-273.961,384.167-436.38,381.346c-160.998-2.713-317.897-159.599-320.643-320.596
	c-0.152-9.809,2.714-20.459,4.02-30.645c53.115-4.95,100.485-16.349,125.357-30.555
	C1143.172,827.218,1208.961,760.872,1370.439,864.598z"/>
</svg>
